X:1
T:MY BONNIE LASS SHE SMILETH
T:Edward German (1862-1936)
T:Words Old English
T:MY BONNIE LASS SHE SMILETH
T:Copyright © CPDL
T:Copyright © CPDL
T:Copyright © CPDL
T:Copyright © CPDL
T:Copyright © CPDL
T:Copyright © CPDL
T:Copyright © CPDL
T:Copyright © CPDL
T:Copyright © CPDL
T:Copyright © CPDL
C:Edward German (1862-1936)
Z:Words Old English
Z:Copyright © CPDL
%%score [ 1 2 3 4 ]
L:1/8
Q:1/4=120
M:4/4
K:F
V:1 treble nm="Soprano" snm="S."
V:2 treble nm="Alto" snm="A."
V:3 treble-8 transpose=-12 nm="Tenor" snm="T."
V:4 bass nm="Bass" snm="B."
V:1
!mf!"^Allegro giocoso" c2 | AG F4 G2 | (ED) C4 B2 |!<(! (BA) (GF) d2!<)! c2 | !>!c2 B4!pp! .c.d | %5
w: My|bon- nie lass she|smi- * leth, When|she * my * heart be-|gui- leth, With a|
 .G.A !>!B2- B.A.G.F | .E.F.G z F!mf! z !tenuto!d2 | !>!B4 !tenuto!G4 | (!tenuto!^FG) A2 D2 c2 | %9
w: fal la la _ la la la|la la la la! Smile|less, dear|love, * there- fore, And|
 B2 G2 (BA) (G^F) | G2 z2 z4 | z G !>!c2- c4- | cF !>!B2- B4- | BEAA A2 A2 | A2 GA Bc !>!d2- | %15
w: you shall love * me *|more,|and you, _|_ and you, _|_ and you shall love me|more! With a fal la la|
!<(! dBGA Bcde!<)! |!f! !>!f2 cB A2 c2 | f2 cB A2 c2 | FGAB cd_e"^Broader"c | %19
w: _ la la la la la la la|la la la la la|la la la la la|la la la la la la la la|
 !>!d2 z2!f! !tenuto!f4 | !tenuto!e2 !tenuto!d2 !tenuto!c2 !tenuto!B2 |"^rit." A2!>(! B2 c2 d2 | %22
w: la! Smile|less, dear love, there-|fore, And you shall|
 F4!>)! G4 |!p! F4- F2"^a tempo" z2 ||[K:C] z8 | z4!f! !>!B4 | !>!e3 d c2 B2 | !>!B2 A4!pp! .Bc | %28
w: love me|more _||Oh!|how my heart it|burn- eth, With a|
 .^F.G !>!A2- A.G.F.E | .^D.E.^F z .E z!f! !tenuto!e2 |"^Broader" !tenuto!=d4 !tenuto!c4 | %31
w: fal la la _ la la la|la la la la! Dear|love, dear|
 !tenuto!B2 A2 G2 F2 | E2!p! .E2 .E2 .A2 | A4 ^G4 | A2 c2 A4- | A2 c2 A4- | A2!f! c2 BA A2 | %37
w: love, call in their|light, Or else you|burn me|quite! Yes, quite!|_ yes, quite!|_ My bon- nie lass,|
 z2!mf! c2"^rall." BA A2 |!>(! z2 c2-!>)! c4 ||[K:F]!p!"^Tempo 1mo." AG F4 G2 | (ED) C4 B2 | %41
w: my bon- nie lass,|my _|bon- nie lass she|smi- * leth, When|
!<(! (BA) (GF) d2!<)! c2 | !>!c2 B4!pp! .c.d | .G.A !>!B2- B.A.G.F | .E.F.G z .F z!mf! !tenuto!d2 | %45
w: she * my * heart be-|gui- leth, With a|fal la la _ la la la|la la la la! Smile|
 !>!B4 !tenuto!G4 | (!tenuto!^FG) A2 D2 c2 | B2 G2 (BA) (G^F) | G2 z2 z4 | z G !>!c2- c4- | %50
w: less, dear|love, * there- fore, And|you shall love * me *|more,|and you, _|
 cF !>!B2- B4- | BEAA A2 A2 | A2 GA Bc !>!d2- |!<(! dBGA Bcd!<)!!f!e | !>!f2 cB A2 c2 | %55
w: _ and you, _|_ and you shall love me|more! With a fal la la|_ la la la la la la la|la la la la la|
 f2 cB A2 c2 | FGAB cd_ec |"^Broader" !>!d2 z2!f! !tenuto!f4 | %58
w: la la la la la|la la la la la la la la|la! Smile|
 !tenuto!e2 !tenuto!d2 !tenuto!c2 !tenuto!B2 | !tenuto!A2"^rit." B2!>(! c2 d2 | F4!>)! G4 | %61
w: less, dear love, there-|fore, And you shall|love me|
"^a tempo delicato" F2 .F.G .A.G.F.G | (Ac) z2 C z C z | C z .F.G .A.G.F.G | (Ac).C.D .E.D.C.E | %65
w: more! With a fal la la la|la _ la la|la with a fal la la la|la, _ with a fal la la la|
"^molto dim." !tenuto!D4 .E.D.C.E |!>(! !tenuto!D4 .E.D.C!>)!.E |!ppp! D z C z .=B, z .C z | %68
w: la la la la la|la la la la la|la la la la|
!<(! .E z .F z .^G z .A!<)! z | !>!.c z!ff! z2"^Allargando" !>!c3 !>!c | !>!d4"^rit." !>![Bf]4 | %71
w: la la la la|la, with a|fal la|
 !>!!fermata![Af]8 || %72
w: la!|
V:2
 z2 |!mf! z2 .C2 .D2 .D2 | (CD) .C2 .C2 .E2 |!<(! (F2 C2) F2!<)! F2 | !>!G2!pp! G2 !>!G3 .G | %5
w: |My lass she|smi- * leth, When my|heart _ she be-|gui- leth, With a|
 .G.C.D.E .F z .C z | .C z .E z .F!mf! z !tenuto!D2 | !>!D4 !tenuto!D4 | !tenuto!D2 !>!_E2 D2 ^F2 | %9
w: fal la la la la la|la la la! Smile|less, dear|love, there- fore, And|
 G2 G2 _E2 D2 | D2 z2 z DGF | E4- ECFE | D4- DB,ED | ^C2 C2 D4- | DDDD D2 D2 | %15
w: you shall love me|more, and you shall|love, _ and you shall|love, _ and you shall|love me more,|_ and you shall love me|
!<(! D2 EE E2 AG!<)! |!f! !>!F2 E2 F2 c2 | A2 F2 E2 D2 | C2 z2 F2 F2 | !>!F2 z2!f! !>!B2 !>!A2 | %20
w: more! With a fal la la|la la la la|la la la la|la la la|la la la|
 !tenuto!G2 !tenuto!E2 !tenuto!F2 !tenuto!G2 |"^rit." F2!>(! F2 F2 D2 | C4!>)! E4 | %23
w: la! Smile less, there-|fore, And you shall|love we|
!p! F4- F2"^a tempo" z2 ||[K:C] z8 | z4!f! !>!E4 | !>!E2 E2 E4 | E2 E2!pp! !>!E3 E | %28
w: more _||Oh!|how my heart|burn- eth, With a|
 .^F.B,.^C.^D .E z .B, z | .B, z .^D z .E z !tenuto!G2 | !tenuto!G4 !tenuto!G4 | %31
w: fal la la la la la|la la la! Dear|love, dear|
 !tenuto!F2 E2 D2 B,2 | C2!p! .B,2 .C2 .C2 | F4 E4 | E2 z2 z2 .F2 | .E2 z2 z2 .F2 | .E2 z2 z4 | %37
w: love, call in their|light, Or else you|burn me|quite! Yes,|quite! yes,|quite!|
 z8 | z8 ||[K:F] z2!p! .C2 .D2 .D2 | (CD) .C2 .C2 .E2 |!<(! (F2 C2) F2!<)! F2 | %42
w: ||my lass she|smi- * leth, When my|heart _ she be-|
 !>!G2!pp! G2 !>!G3 .G | .G.C.D.E .F z .C z | .C z .E z .F z!mf! !tenuto!D2 | !>!D4 !tenuto!D4 | %46
w: gui- leth, With a|fal la la la la la|la la la! Smile|less, dear|
 !tenuto!D2 _E2 D2 ^F2 | G2 G2 _E2 D2 | D2 z2 z DGF | E4- ECFE | D4- DB,ED | ^C2 C2 D4- | %52
w: love, there- fore, And|you shall love me|more, and you shall|love, _ and you shall|love, _ and you shall|love me more,|
 DDDD D2 D2 |!<(! D2 EE E2 A!<)!!f!G | !>!F2 E2 F2 c2 | A2 F2 E2 D2 | C2 z2 F2 F2 | %57
w: _ and you shall love me|more! With a fal la la|la la la la|la la la la|la la la|
 !>!F2 z2!f! !>!B2 !>!A2 | !tenuto!G2 !tenuto!E2 !tenuto!F2 !tenuto!G2 | %59
w: la! la la|la! Smile less, there-|
 !tenuto!F2"^rit." F2!>(! F2 D2 | C4!>)! E4 |"^a tempo" F2 z2!p! D4 | C2 .C.D .E.D.C.D | %63
w: fore, And you shall|love me|more! La|la, with a fal la la la|
 (EA) z2 D4 | C4 B,4 |"^molto dim." (A,2 C2) B,4 |!>(! (A,2 C2)!>)! B,4 | %67
w: la _ la|la la|la _ la|la _ la|
!ppp! A,2- A, z .A, z .A, z |!<(! .A, z .A, z .C z .C!<)! z | !>!.F z!ff! z2 !>![CF]3 !>![CF] | %70
w: la _ la la|la la la la|la, with a|
 !>![DF]4"^rit." !>!F4 | !>!!fermata![CF]8 || %72
w: fal la|la!|
V:3
 z2 | z2!mf! .F2 .F2 (BA) | .G2 .F2 .G2 .c2 |!<(! c4 B2!<)! c2 | !>!d2!pp! d4!pp! d2 | c8- | %6
w: |My lass she *|smi- leth, When my|heart she be-|gui- leth, Smile|less,|
 c4- c!mf!!mf! z !tenuto!A2 | !>!B4 !tenuto!d4 | !tenuto!c4- c2 A2 | B2 B2 (dc) (BA) | B2 z2 z4 | %11
w: _ _ Smile|less, dear|love, _ And|you shall love * me *|more,|
 z8 | z8 | !>!A4- AAdc | B2 d2 B2 BA |!<(!!<(! G2 dc B2 e!<)!!<)!d |!f! !>!c2 !>!c4 F2 | F2 F4 F2 | %18
w: ||love, _ and you shall|love me more! With a|fal la la la la la|la la la|la la la|
 F2 z2 c2 A2 | !>!B2 z2!f!!f! !>!B4 | !tenuto!c4- c2 !tenuto!c2 |"^rit." c2!>(! F2 F2 (FG) | %22
w: la ia la|la! Smile|less, _ there-|fore, And you shall *|
 A4!>)! B4 |!p! A4- A2!f!"^a tempo" !>!A2 ||[K:C] !>!d3 c =B2 A2 | A2 ^G4 G2 | A2 B2 A2 B2 | %27
w: love me|more _ When|she her sweet eye|turn- eth, Oh!|how my heart it|
 !>!c2 c2!pp! c4 | B8- | B4- B z!f! !tenuto!B2 | !tenuto!B4 !tenuto!c4 | G8- | G2!p! .^G2 .A2 .A2 | %33
w: burn- eth, my|heart,|_ _ Dear|love, dear|love,|_ Or else you|
 B4 B4 | c2 z2 z2 .A2 | .c2 z2 z2 .A2 | .c2 z2 z2!f! c2 |!>(! BA A2!>)!"^rall." z2!mf! c2 | %38
w: burn me|quite! Yes,|quite! yes,|quite! My|bon- nie lass, my|
!>(! BA!p! A2!>)! z4 ||[K:F] z2!p! .F2 .F2 (BA) | .G2 .F2 .G2 .c2 |!<(! c4 B2!<)! c2 | %42
w: bon- nie lass,|my lass she *|smi- leth, When my|heart she be-|
 !>!d2 d4!pp! d2 | c8- | c4- c z!mf! !tenuto!A2 | !>!B4 !tenuto!d4 | !tenuto!c4- c2 A2 | %47
w: gui- leth, Smile|less,|_ _ Smile|less, dear|love _ And|
 B2 B2 (dc) (BA) | B2 z2 z4 | z8 | z8 | !>!A4- AAdc | B2 d2 B2 BA |!<(! G2 dc B2 e!<)!!f!d | %54
w: you shall love * me *|more,|||love, _ and you shall|love me more! With a|fal la la la la la|
 !>!c2 !>!c4 F2 | F2 !>!F4 F2 | F2 z2 c2 A2 | !>!B2 z2!f! !>!B4 | !tenuto!c4- c2 !tenuto!c2 | %59
w: la la la|la la la|la la la|la! Smile|less, _ there-|
 !tenuto!c2"^rit." F2!>(! F2 (FG) | A4!>)! B4 |"^a tempo" A2 z2!p! F4- | F2 z2 B z B z | %63
w: fore, And you shall _|love me|more! La|_ la la|
 A z z2 F4- | F2 z2 C4- |"^molto dim." C8- |!>(! C8-!>)! |!ppp! C2- C z .C z .C z | %68
w: la la|_ la|_||* * la la|
!<(! .C z .C z .F z .F!<)! z | !>!.A z!ff! z2 !>!A3 !>!A | !>!B4"^rit." !>!B4 | !>!!fermata!A8 || %72
w: la la la la|la, with a|fal la.|la!|
V:4
 z2 |!mf! z2 .A,,2 .B,,2 .G,,2 | .C,2 .D,2 .E,2 .C,2 |!<(! (F,2 A,2) B,2!<)! A,2 | %4
w: |My lass she|smi- leth, When my|heart _ she be-|
 !>!G,2 D,2 !>!G,3 .F, | .E, z C, z .F, z .A, z | .G, z .B, z .A, z !tenuto!^F,2 | %7
w: gui- leth, With a|fal la la la|la la la! Smile|
 !>!G,4 !tenuto!B,4 | !tenuto!A,2 G,2 ^F,2 D,2 | G,2 _E,2 C,2 D,2 | G,,2 (G,A,) B,2 G,2 | %11
w: less, dear|love, there- fore, And|you shall love me|more, and _ you shall|
 !>!C3 B, (A,2 F,2) | !>!B,3 A, (G,2 E,2) | !>!A,3 G, ^F,2 D,2 |!mp! G, z B,A, G,2 =F,2 | %15
w: love me more, _|love me more, _|love me more and|more! With a fal la|
 E,2 B,A, G,2 CB, |!f! !>!A,2 G,2 F,2 !>!E,2- | E,2 D,2 C,2 B,,2 | A,,2 z2 A,2 F,2 | %19
w: la la la la la la|la la la la|_ la la la|la la la|
 !>!B,2 !>!A,2 !tenuto!G,4 | !tenuto!C2 !tenuto!C,2 !tenuto!D,2 !tenuto!E,2 | %21
w: la la! Smile|less, dear love, there-|
"^rit." F,2!>(! D,2 A,,2 B,,2 | C,4!>)! C,4 |!p! [F,,C,]4- .[F,,C,]2"^a tempo" z2 ||[K:C] z8 | %25
w: fore, And you shall|love me|more! _||
 z4 z2!f! E,2 | ^F,2 ^G,2 A,2 =G,2 | ^F,2 F,2!pp! !>!E,3 E, | .^D, z .B,, z .E, z .G, z | %29
w: Oh!|how my heart it|burn- eth, With a.|fal la la la|
 .^F, z .A, z .G, z!f! !tenuto!G,2 | !tenuto!=F,4 !tenuto!E,4 | !tenuto!D,2 C,2 B,,2 G,,2 | %32
w: la la la! Dear|love, dear|love, call in their|
 C,2 .E,2 .A,2 .F,2 | D,4 E,4 | A,,2 z2 z2 .D,2 | .A,,2 z2 z2 .D,2 | .A,,2 z2 z4 | z8 | z8 || %39
w: light, Or else you|burn me|quite! Yes,|quite! yes,|quite!|||
[K:F] z2!p! .A,,2 .B,,2 .G,,2 | .C,2 .D,2 .E,2 .C,2 |!<(! (F,2 A,2) B,2!<)! A,2 | %42
w: my lass she|smi- ieth, When my|heart _ she be-|
 !>!G,2!pp! D,2 !>!G,3 .F, | .E, z .C, z .F, z .A, z | .G, z .B, z .A,!mf! z !tenuto!^F,2 | %45
w: gui- leth, With a|fal la la la|la la la! Smile|
 !>!G,4 !tenuto!B,4 | !tenuto!A,2 G,2 ^F,2 D,2 | G,2 _E,2 C,2 D,2 | G,,2 (G,A,) B,2 G,2 | %49
w: less, dear|love, there- fore, And|you shall love me|more, and * you shall|
 !>!C3 B, (A,2 F,2) | !>!B,3 A, (G,2 E,2) | !>!A,3 G, ^F,2 D,2 | G, z B,A, G,2 =F,2 | %53
w: love me more, _|love me more, _|love me more and|more! With a fal la|
!<(! E,2 B,A, G,2 C!<)!!f!B, | !>!A,2 G,2 F,2 !>!E,2- | E,2 D,2 C,2 B,,2 | A,,2 z2 A,2 F,2 | %57
w: la la la la la la|la la la la|_ la la la|la la la|
 !>!B,2 !>!A,2!f! !tenuto!G,4 | !tenuto!C2 !tenuto!C,2 !tenuto!D,2 !tenuto!E,2 | %59
w: la la! Smile|less, dear love, there-|
 !tenuto!F,2"^rit." D,2!>(! A,,2 B,,2 | C,4!>)! C,4 |"^a tempo" F,,2 z2!p! B,,4 | A,,4 G,,4 | %63
w: fore, And you shall|love me|more! La|la la|
 F,,4 B,,4 | A,,4 G,,4 |"^molto dim." (F,,2 A,,2) .G,, z .C, z |!>(! (F,,2 A,,2) .G,, z .C,!>)! z | %67
w: la la|la la|la _ la la|la _ la la|
!ppp! F,,2- F,, z .F,, z .F,, z |!<(! .F,, z .F,, z .F, z .F,!<)! z | %69
w: la _ la la|la la la la|
 !>!.F, z!ff! z2 !>!F,3 !>!F, | !>![B,,F,]4"^rit." !>![D,F,]4 | !>!!fermata![F,,C,]8 || %72
w: la, with a|fal la|la!|

